X:730
T:Astridin vals
T:Astrid valse
R:Valse
C:trad
N: cf. Astridin vals e. Norrl{\aa}tar (S), www.folketshus.dk
N:original url: www.wolfram.claranet.de
M:3/4
L:1/4
K:Am
E|:A2B| c2d| c>dc/B/| Ace| a>gf/e/| dfa|1e2d| e2E :|2 e3-|e3|
|:a>gf/e/| dfa| ee/f/e/c/| A2B| cfe| dcB|1 A>Bc/B/| A3:|2 A3-|A2||
